!!!OTL: In dulci jubilo
!!!ARE: Europa, Mitteleuropa, Deutschland
!!!SCT: A0528B
!!!YEM: Copyright 1995, estate of Helmut Schaffrath.
**kern
*ICvox
*Ivox
*M6/2
*k[b-]
*F:
{2f
=1
1f
2f
1a
2b-
=2
1cc
2dd
1cc}
{2cc
=3
1f
2f
1a
2b-
=4
1cc
2dd
1.cc}
=5
{1cc
2dd
1cc
2b-
=6
1.a
1f}
{2f
=7
1g
2g
1a
2g
=8
1f
2g
1a}
{2a
=9
1cc
2dd
1cc
2b-
=10
1.a
1f}
{2f
=11
1g
2g
1a
2g
=12
1f
2g
1.a}
=13
{1d
2d
1e
2e
=14
1.f
1.cc}
=15
{1a
2a
1g
2g
=16
[1.f
1f]}
==
!!!AGN: Romanze, Ballade, Lied, religioeses Lied
!! M. Behe 1537.
!!!ONB: ESAC (Essen Associative Code) Database: ALTDEU
!!!AMT: compound duple
!!!AIN: vox
!!!EED: Helmut Schaffrath
!!!EEV: 1.0
*-
